packages/ui-icons/svg/Solid/address-book.svg

<svg viewBox="0 0 1920 1920" version="1.1" xmlns="http://www.w3.org/2000/svg">
    <path d="M1801.44118,0 L1801.44118,1920 L219.029412,1920 L219.029412,1480.78431 L162.514706,1480.78431 C131.318588,1480.78431 106,1455.48549 106,1424.31373 C106,1393.14196 131.318588,1367.84314 162.514706,1367.84314 L162.514706,1367.84314 L219.029412,1367.84314 L219.029412,1029.01961 L162.514706,1029.01961 C131.318588,1029.01961 106,1003.72078 106,972.54902 C106,941.377255 131.318588,916.078431 162.514706,916.078431 L162.514706,916.078431 L219.029412,916.078431 L219.029412,577.254902 L162.514706,577.254902 C131.318588,577.254902 106,551.956078 106,520.784314 C106,489.612549 131.318588,464.313725 162.514706,464.313725 L162.514706,464.313725 L219.029412,464.313725 L219.029412,0 L1801.44118,0 Z M1029,499 C916.21825,499 792.520368,590.71825 792.520368,703.5 L792.520368,805.75 C792.520368,851.3535 808.647592,892.96925 833.903342,927.0185 C801.744473,936.399827 783.134393,947.137132 742.4955,966.487 C669.163241,1001.40354 620,1072.2135 620,1154.11575 L620,1294.096 L643.82425,1309.12675 C743.82475,1372.215 857.93575,1410.252 973.9895,1419.14775 C992.19,1420.477 1009.87925,1421.19275 1027.364,1421.19275 C1206.19925,1421.19275 1344.339,1352.7875 1413.97125,1309.33125 L1438,1294.3005 L1438,1153.50225 C1438,1071.70225 1389.1245,997.7755 1313.56175,965.0555 C1274.50225,948.18425 1249.07474,936.63 1208.27699,927.0185 C1233.02149,893.17375 1255.44392,850.74 1255.44392,805.75 L1255.44392,703.5 C1255.44392,590.71825 1141.78175,499 1029,499 Z M722.303255,1154.49919 C722.303255,1113.49694 746.127505,1076.68694 783.142005,1060.73594 C859.420505,1027.70919 938.357505,1011.04244 1018.41926,1009.61094 C1021.99801,1009.71319 1034.16576,1009.91769 1036.82426,1009.81544 C1050.01451,1010.01994 1063.10251,1009.50869 1076.29276,1010.53119 C1143.77776,1015.64369 1210.03576,1032.10594 1273.12401,1059.30444 C1311.16101,1075.76669 1335.80326,1112.88344 1335.80326,1153.88569 L1335.80326,1237.21944 C1263.71701,1277.60819 1137.84726,1329.34669 981.813755,1317.58794 C891.424755,1310.63494 802.262755,1283.02744 722.303255,1237.42394 L722.303255,1154.49919 Z M888.138287,703.553255 C888.138287,647.213505 972.717766,601.303255 1029.15977,601.303255 C1085.60177,601.303255 1160.21148,647.213505 1160.21148,703.553255 L1160.21148,805.803255 C1160.21148,861.120505 1087.03327,905.803755 1032.12502,907.439755 C1029.97777,907.439755 1027.83052,907.337505 1025.68327,907.337505 C970.979516,905.394755 888.138287,860.916005 888.138287,805.803255 L888.138287,703.553255 Z" stroke="none" stroke-width="1" fill-rule="evenodd"/>
</svg>

<svg viewBox="0 0 1920 1920" version="1.1" xmlns="http://www.w3.org/2000/svg">
    <path d="M219.03 0H1801.44v1920H219.03v-439.216h-56.514c-31.196 0-56.515-25.299-56.515-56.47 0-31.172 25.319-56.47 56.515-56.47h56.514V1029.02h-56.514c-31.196 0-56.515-25.3-56.515-56.471 0-31.172 25.319-56.47 56.515-56.47h56.514V577.254h-56.514c-31.196 0-56.515-25.299-56.515-56.47 0-31.172 25.319-56.471 56.515-56.471h56.514V0zm808.334 1421.193c178.835 0 316.975-68.406 386.607-111.862l24.029-15.03v-140.799c0-81.8-48.876-155.726-124.438-188.446-39.06-16.872-64.487-28.426-105.285-38.038 24.744-33.844 47.167-76.278 47.167-121.268V703.5c0-112.782-113.662-204.5-226.444-204.5-112.782 0-236.48 91.718-236.48 204.5v102.25c0 45.604 16.128 87.22 41.383 121.269-32.159 9.38-50.769 20.118-91.408 39.468C669.163 1001.404 620 1072.214 620 1154.116v139.98l23.824 15.03c100 63.089 214.112 101.126 330.166 110.022 18.2 1.329 35.89 2.045 53.374 2.045zm-305.06-266.694c0-41.002 23.824-77.812 60.838-93.763 76.279-33.027 155.216-49.694 235.277-51.125 3.579.102 15.747.307 18.405.204 13.19.205 26.279-.306 39.469.716 67.485 5.113 133.743 21.575 196.831 48.773 38.037 16.463 62.68 53.58 62.68 94.582v83.333c-72.087 40.39-197.957 92.128-353.99 80.369-90.39-6.953-179.551-34.56-259.51-80.164v-82.925zm165.834-450.946c0-56.34 84.58-102.25 141.022-102.25 56.442 0 131.051 45.91 131.051 102.25v102.25c0 55.318-73.178 100-128.086 101.637-2.147 0-4.294-.102-6.442-.102-54.703-1.943-137.545-46.422-137.545-101.535v-102.25z" stroke="none" stroke-width="1" fill-rule="evenodd"/>
</svg>
